X:1
T:Non e piu certa
T:Non e piu certa cosa
T:Vincenzo Recco
T:Source : Secondo libro delle villanelle a 3 voci---Venetia---Figlio d'A.Gardano---1574. Editor : André Vierendeels (25/03/16).
T:Notes : Original clefs : C1, C2, C4 Editorial accidentals above tha sttaff "Alla napolitana" Music by composers from Bari, collected by G.de Antiquis m 10 in S : "re" notated as "do" in original print
T:©
T:©
C:Vincenzo Recco
Z:©
%%score [ 1 2 3 ]
L:1/8
Q:1/4=85
M:4/4
K:F
V:1 treble nm="Soprano 1" snm="S 1"
V:2 treble nm="Soprano 2" snm="S 2"
V:3 treble-8 nm="Tenor" snm="T"
V:1
 A4 G4 | z2 A2 A4 | z2 d2 d4 | c4 e2 e2 | e4 d4 | G6 F2 | E8 |[M:2/4] D4 ::[M:4/4] z2 A2 A2 A2 | %9
w: 1)Non e,|non e,|non e|piu cer- ta|1)co- s'a-|me- ro-|me-|ne,|com' e que-|
w: 2)Chi pen,|chi pen,|chi pen-|s'as- sai sa-|2)lir ca-|der con|vie-|ne,|e non se|
w: 3)Quan- te|quan- te|quan- te|n'hai vi- st'al|3)mon- do'ha-|ver gran|be-|ne,|ch'al fin han|
w: 4)Se tu,|se tu,|se tu|men- tre si|4)bel- la|cre- de-|ra-|i,|che que- sto|
 d2 B2 G2 A2 | B4 A4- | A2 G2 A4 | G4 E2 C2 | G4 A4 | z2 G2 F2 F2 | G2 G2 A4 | d4 c2 c2 | A4 G4 :| %18
w: 1)sta per flin- to|di na-|* tu- ra,|che mal e|be- ne,|1)che mal e|be- ne po-|co tem- po|du- ra.|
w: 2)fi- de'a sua gen-|til fi-|* gu- ra,|che mal e|be- ne,|2)che mal e|be- ne po-|co tem- po|du- ra.|
w: 3)pian- to lor tri-|sta scia-|* gu- ra,|che mal e|be- ne,|3)che mal e|be- ne po-|co tem- po|du- ra.|
w: 4)tem- po non pas-|sa- rà|_ ma- i,|pen- sa che|pas- sa|4)e bel- la|non sa- ra-|i, non sa-|ra- i.|
V:2
 F4 E4 | z2 F2 E4 | z2 B2 B4 | A4 G2 G2 | G4 F4 | D4 D4 | D4 C4 |[M:2/4] D4 ::[M:4/4] z2 F2 F2 F2 | %9
w: 1)Non e,|non e,|non e|piu cer- ta|1)co- s'a-|me- ro-|me- *|ne,|com' e que-|
w: 2)Chi pen,|chi pen,|chi pen|s'as- sai sa-|2)lir ca-|der con|vie- *|ne,|e non se|
 D2 D2 E2 F2 | D4 C4 | D4 E4 | z4 G4 | E2 C2 F4 | E4 z2 D2 | E2 E2 F2 F2 | D2 D2 G2 G2- | %17
w: 1)sta per flin- to|di na-|tu- ra,|che|mal e be-|1)ne, che|mal e be- ne|po- co tem- po|
w: 2)fi- de'a sua gen-|til fi-|gu- ra,|che|mal e be-|2)ne, che|mal e be- ne|po- co tem- po|
"^#" G2 F2 G4 :| %18
w: _ du- ra.|
w: _ du- ra.|
V:3
 F4 c4 | z2 d2 A4 |"^#" z2 B2 B4 | F4 c2 c2 | c4 B4 | G4 G4 | G4 A4 |[M:2/4] D4 :: %8
w: 3)Quan- te,|quan- te,|quan- te|n'hai vi- st'al|3)mo;- do'ha-|ver gran|be- *|ne,|
w: 4)Se tu,|se tu,|se- tu|men- tre si|4bel- la|cre- de-|ra- *|i,|
[M:4/4] z2 d2 d2 A2 | B2 B2 c2 F2 | G4 A4 | B4 A4 | z8 | c4 A2 F2 | c4 B2 B2 | c2 c2 F2 F2 | %16
w: ch'al fin han|3)pian- to lor tri-|sta scia-|gu- ra,||che mal e|3)ben, che mal|e ben, po- co,|
w: che que- sto|4)tem- po non pas-|sa- rà|ma- i,||pen- se che|4)pas- sa e|bel- la, pas- sa'e|
 B2 B2 c2 c2 | d4 G4 :| %18
w: po- co tem- po|du- ra.|
w: bel- la non sa-|ra- i.|

